svg/u1f9b0.svg

<svg viewBox="0 0 128 128" xmlns="http://www.w3.org/2000/svg" xmlns:xlink="http://www.w3.org/1999/xlink">
  <radialGradient id="c" cx="64.436" cy="14.875" gradientUnits="userSpaceOnUse" r="79.341">
    <stop offset=".0042869" stop-color="#F98B25"/>
    <stop offset="1" stop-color="#E63D00"/>
  </radialGradient>
  <path d="m64.04 14.48h-0.03s-0.02 0-0.03 0c-73.79 0.39-58.68 84.68-58.68 84.68s8.29 14.6 8.28 14.31c-0.27-11.78 4.45-32.63 7.79-41.5 1.68-4.48 6.33-7.08 11.04-6.23 7.23 1.31 18.75 2.93 31.46 2.93h0.14 0.14c12.71 0 24.23-1.62 31.46-2.93 4.71-0.85 9.35 1.75 11.04 6.23 3.34 8.88 8.06 29.73 7.79 41.5-0.01 0.29 8.28-14.31 8.28-14.31s15.12-84.29-58.68-84.68z" fill="url(#c)"/>
  <defs>
    <path id="b" d="m64.01 14.53h-0.03s-0.02 0-0.03 0c-73.79 0.39-58.67 84.68-58.67 84.68s8.29 14.6 8.28 14.31c-0.05-2.3 0.74-11.2 0.74-11.2l-4.35-4.75s6.32-41.31 11.02-40.46c7.23 1.31 43.1 3.25 43.15 3.25 12.71 0 24.23-0.58 31.46-1.89 4.71-0.85 15.66 2.76 17.35 7.23 2.16 5.75 5.08 32.02 5.08 32.02l-4.35 4.6s0.8 8.94 0.74 11.2c-0.01 0.29 8.28-14.31 8.28-14.31s15.13-84.29-58.67-84.68z"/>
  </defs>
  <clipPath id="a">
    <use xlink:href="#b"/>
  </clipPath>
  <g clip-path="url(#a)">
    <path d="m68.83 14.53m-4.84 4.87c18.38 0.1 32.37 5.75 41.58 16.8 17.55 21.05 13.29 55.75 12.46 61.37-0.04 0.06-0.07 0.12-0.11 0.19-1.65-10.45-4.48-21.49-6.73-27.46-2.15-5.71-7.7-9.55-13.81-9.55-0.89 0-1.78 0.08-2.65 0.24-7.19 1.3-18.33 2.86-30.59 2.86h-0.08-0.06-0.06-0.07c-12.26 0-23.41-1.55-30.59-2.86-0.88-0.16-1.77-0.24-2.65-0.24-6.11 0-11.66 3.84-13.81 9.55-2.25 5.98-5.08 17.01-6.73 27.46-0.04-0.06-0.07-0.12-0.11-0.19-0.86-5.63-5.12-40.32 12.43-61.37 9.21-11.05 23.2-16.7 41.58-16.8m0.02-4.87h-0.03s-0.02 0-0.03 0c-73.79 0.39-58.67 84.68-58.67 84.68s8.12 14.31 8.28 14.31c-0.27-11.78 4.45-32.63 7.79-41.5 1.47-3.91 5.2-6.39 9.25-6.39 0.59 0 1.19 0.05 1.79 0.16 7.23 1.31 18.75 2.93 31.46 2.93h0.14 0.14c12.71 0 24.23-1.62 31.46-2.93 0.6-0.11 1.2-0.16 1.79-0.16 4.05 0 7.78 2.48 9.25 6.39 3.34 8.88 8.06 29.73 7.79 41.5 0.15 0 8.28-14.31 8.28-14.31s15.11-84.29-58.69-84.68z" fill="#C23B00"/>
  </g>
  <rect fill="none" height="120" width="120" x="4" y="4"/>
  <path d="m128 0h-4c-0.55 0-1 0.45-1 1s0.45 1 1 1h4v-2zm-12 0h-4c-0.55 0-1 0.45-1 1s0.45 1 1 1h4c0.55 0 1-0.45 1-1s-0.45-1-1-1zm-12 0h-4c-0.55 0-1 0.45-1 1s0.45 1 1 1h4c0.55 0 1-0.45 1-1s-0.45-1-1-1zm-12 0h-4c-0.55 0-1 0.45-1 1s0.45 1 1 1h4c0.55 0 1-0.45 1-1s-0.45-1-1-1zm-12 0h-4c-0.55 0-1 0.45-1 1s0.45 1 1 1h4c0.55 0 1-0.45 1-1s-0.45-1-1-1zm-12 0h-4c-0.55 0-1 0.45-1 1s0.45 1 1 1h4c0.55 0 1-0.45 1-1s-0.45-1-1-1zm-12 0h-4c-0.55 0-1 0.45-1 1s0.45 1 1 1h4c0.55 0 1-0.45 1-1s-0.45-1-1-1zm-12 0h-4c-0.55 0-1 0.45-1 1s0.45 1 1 1h4c0.55 0 1-0.45 1-1s-0.45-1-1-1zm-12 0h-4c-0.55 0-1 0.45-1 1s0.45 1 1 1h4c0.55 0 1-0.45 1-1s-0.45-1-1-1zm-12 0h-4c-0.55 0-1 0.45-1 1s0.45 1 1 1h4c0.55 0 1-0.45 1-1s-0.45-1-1-1zm-12 0h-4c-0.55 0-1 0.45-1 1s0.45 1 1 1h4c0.55 0 1-0.45 1-1s-0.45-1-1-1zm-7 3c-0.55 0-1 0.45-1 1v4c0 0.55 0.45 1 1 1s1-0.45 1-1v-4c0-0.55-0.45-1-1-1zm0 12c-0.55 0-1 0.45-1 1v4c0 0.55 0.45 1 1 1s1-0.45 1-1v-4c0-0.55-0.45-1-1-1zm0 12c-0.55 0-1 0.45-1 1v4c0 0.55 0.45 1 1 1s1-0.45 1-1v-4c0-0.55-0.45-1-1-1zm0 12c-0.55 0-1 0.45-1 1v4c0 0.55 0.45 1 1 1s1-0.45 1-1v-4c0-0.55-0.45-1-1-1zm0 12c-0.55 0-1 0.45-1 1v4c0 0.55 0.45 1 1 1s1-0.45 1-1v-4c0-0.55-0.45-1-1-1zm0 12c-0.55 0-1 0.45-1 1v4c0 0.55 0.45 1 1 1s1-0.45 1-1v-4c0-0.55-0.45-1-1-1zm0 12c-0.55 0-1 0.45-1 1v4c0 0.55 0.45 1 1 1s1-0.45 1-1v-4c0-0.55-0.45-1-1-1zm0 12c-0.55 0-1 0.45-1 1v4c0 0.55 0.45 1 1 1s1-0.45 1-1v-4c0-0.55-0.45-1-1-1zm0 12c-0.55 0-1 0.45-1 1v4c0 0.55 0.45 1 1 1s1-0.45 1-1v-4c0-0.55-0.45-1-1-1zm0 12c-0.55 0-1 0.45-1 1v4c0 0.55 0.45 1 1 1s1-0.45 1-1v-4c0-0.55-0.45-1-1-1zm0 12c-0.55 0-1 0.45-1 1v4h2v-4c0-0.55-0.45-1-1-1zm11 3h-4c-0.55 0-1 0.45-1 1s0.45 1 1 1h4c0.55 0 1-0.45 1-1s-0.45-1-1-1zm12 0h-4c-0.55 0-1 0.45-1 1s0.45 1 1 1h4c0.55 0 1-0.45 1-1s-0.45-1-1-1zm12 0h-4c-0.55 0-1 0.45-1 1s0.45 1 1 1h4c0.55 0 1-0.45 1-1s-0.45-1-1-1zm12 0h-4c-0.55 0-1 0.45-1 1s0.45 1 1 1h4c0.55 0 1-0.45 1-1s-0.45-1-1-1zm12 0h-4c-0.55 0-1 0.45-1 1s0.45 1 1 1h4c0.55 0 1-0.45 1-1s-0.45-1-1-1zm12 0h-4c-0.55 0-1 0.45-1 1s0.45 1 1 1h4c0.55 0 1-0.45 1-1s-0.45-1-1-1zm12 0h-4c-0.55 0-1 0.45-1 1s0.45 1 1 1h4c0.55 0 1-0.45 1-1s-0.45-1-1-1zm12 0h-4c-0.55 0-1 0.45-1 1s0.45 1 1 1h4c0.55 0 1-0.45 1-1s-0.45-1-1-1zm12 0h-4c-0.55 0-1 0.45-1 1s0.45 1 1 1h4c0.55 0 1-0.45 1-1s-0.45-1-1-1zm12 0h-4c-0.55 0-1 0.45-1 1s0.45 1 1 1h4c0.55 0 1-0.45 1-1s-0.45-1-1-1zm7-3c-0.55 0-1 0.45-1 1v4h2v-4c0-0.55-0.45-1-1-1zm0-12c-0.55 0-1 0.45-1 1v4c0 0.55 0.45 1 1 1s1-0.45 1-1v-4c0-0.55-0.45-1-1-1zm0-12c-0.55 0-1 0.45-1 1v4c0 0.55 0.45 1 1 1s1-0.45 1-1v-4c0-0.55-0.45-1-1-1zm0-12c-0.55 0-1 0.45-1 1v4c0 0.55 0.45 1 1 1s1-0.45 1-1v-4c0-0.55-0.45-1-1-1zm0-12c-0.55 0-1 0.45-1 1v4c0 0.55 0.45 1 1 1s1-0.45 1-1v-4c0-0.55-0.45-1-1-1zm0-12c-0.55 0-1 0.45-1 1v4c0 0.55 0.45 1 1 1s1-0.45 1-1v-4c0-0.55-0.45-1-1-1zm0-12c-0.55 0-1 0.45-1 1v4c0 0.55 0.45 1 1 1s1-0.45 1-1v-4c0-0.55-0.45-1-1-1zm0-12c-0.55 0-1 0.45-1 1v4c0 0.55 0.45 1 1 1s1-0.45 1-1v-4c0-0.55-0.45-1-1-1zm0-12c-0.55 0-1 0.45-1 1v4c0 0.55 0.45 1 1 1s1-0.45 1-1v-4c0-0.55-0.45-1-1-1zm0-12c-0.55 0-1 0.45-1 1v4c0 0.55 0.45 1 1 1s1-0.45 1-1v-4c0-0.55-0.45-1-1-1zm0-12c-0.55 0-1 0.45-1 1v4c0 0.55 0.45 1 1 1s1-0.45 1-1v-4c0-0.55-0.45-1-1-1z"/>
</svg>

<svg viewBox="0 0 128 128" xmlns="http://www.w3.org/2000/svg">
  <defs>
    <radialGradient id="c" cx="64.436" cy="14.875" gradientUnits="userSpaceOnUse" r="79.341">
      <stop offset=".0042869" stop-color="#F98B25"/>
      <stop offset="1" stop-color="#E63D00"/>
    </radialGradient>
  </defs>
  <path d="M64.04,14.48 L64.01,14.48 C64.01,14.48 63.99,14.48 63.98,14.48 C-9.81,14.87 5.3,99.16 5.3,99.16 C5.3,99.16 13.59,113.76 13.58,113.47 C13.31,101.69 18.03,80.84 21.37,71.97 C23.05,67.49 27.7,64.89 32.41,65.74 C39.64,67.05 51.16,68.67 63.87,68.67 L64.01,68.67 L64.15,68.67 C76.86,68.67 88.38,67.05 95.61,65.74 C100.32,64.89 104.96,67.49 106.65,71.97 C109.99,80.85 114.71,101.7 114.44,113.47 C114.43,113.76 122.72,99.16 122.72,99.16 C122.72,99.16 137.84,14.87 64.04,14.48 Z" fill="url(#c)"/>
  <path d="M63.99,19.4 C45.61,19.5 31.62,25.15 22.41,36.2 C4.959,57.131 9.073,91.549 9.965,97.472 C9.955,97.537 9.95,97.57 9.95,97.57 L10.027,97.654 C10.047,97.69 10.067,97.725 10.09,97.76 L10.095,97.728 L14.3,102.32 C14.3,102.32 14.285,102.486 14.26,102.779 C13.761,106.729 13.489,110.435 13.56,113.52 C13.524,113.52 13.083,112.792 12.421,111.664 C10.157,107.804 5.309,99.261 5.28,99.21 L5.28,99.21 C5.28,99.21 -9.84,14.92 63.95,14.53 L64.01,14.53 C69.334,14.558 74.196,15.023 78.633,15.861 C135.706,26.643 122.68,99.21 122.68,99.21 C122.68,99.21 114.871,112.963 114.42,113.508 C114.493,110.307 114.197,106.437 113.66,102.32 L118.01,97.72 C118.01,97.72 118.006,97.686 117.999,97.62 C118.009,97.603 118.019,97.587 118.03,97.57 C118.86,91.95 123.12,57.25 105.57,36.2 C96.36,25.15 82.37,19.5 63.99,19.4 Z" fill="#C23B00"/>
  <path d="M128,0 L124,0 C123.45,0 123,0.45 123,1 C123,1.55 123.45,2 124,2 L128,2 L128,0 Z M116,0 L112,0 C111.45,0 111,0.45 111,1 C111,1.55 111.45,2 112,2 L116,2 C116.55,2 117,1.55 117,1 C117,0.45 116.55,0 116,0 Z M104,0 L100,0 C99.45,0 99,0.45 99,1 C99,1.55 99.45,2 100,2 L104,2 C104.55,2 105,1.55 105,1 C105,0.45 104.55,0 104,0 Z M92,0 L88,0 C87.45,0 87,0.45 87,1 C87,1.55 87.45,2 88,2 L92,2 C92.55,2 93,1.55 93,1 C93,0.45 92.55,0 92,0 Z M80,0 L76,0 C75.45,0 75,0.45 75,1 C75,1.55 75.45,2 76,2 L80,2 C80.55,2 81,1.55 81,1 C81,0.45 80.55,0 80,0 Z M68,0 L64,0 C63.45,0 63,0.45 63,1 C63,1.55 63.45,2 64,2 L68,2 C68.55,2 69,1.55 69,1 C69,0.45 68.55,0 68,0 Z M56,0 L52,0 C51.45,0 51,0.45 51,1 C51,1.55 51.45,2 52,2 L56,2 C56.55,2 57,1.55 57,1 C57,0.45 56.55,0 56,0 Z M44,0 L40,0 C39.45,0 39,0.45 39,1 C39,1.55 39.45,2 40,2 L44,2 C44.55,2 45,1.55 45,1 C45,0.45 44.55,0 44,0 Z M32,0 L28,0 C27.45,0 27,0.45 27,1 C27,1.55 27.45,2 28,2 L32,2 C32.55,2 33,1.55 33,1 C33,0.45 32.55,0 32,0 Z M20,0 L16,0 C15.45,0 15,0.45 15,1 C15,1.55 15.45,2 16,2 L20,2 C20.55,2 21,1.55 21,1 C21,0.45 20.55,0 20,0 Z M8,0 L4,0 C3.45,0 3,0.45 3,1 C3,1.55 3.45,2 4,2 L8,2 C8.55,2 9,1.55 9,1 C9,0.45 8.55,0 8,0 Z M1,3 C0.45,3 0,3.45 0,4 L0,8 C0,8.55 0.45,9 1,9 C1.55,9 2,8.55 2,8 L2,4 C2,3.45 1.55,3 1,3 Z M1,15 C0.45,15 0,15.45 0,16 L0,20 C0,20.55 0.45,21 1,21 C1.55,21 2,20.55 2,20 L2,16 C2,15.45 1.55,15 1,15 Z M1,27 C0.45,27 0,27.45 0,28 L0,32 C0,32.55 0.45,33 1,33 C1.55,33 2,32.55 2,32 L2,28 C2,27.45 1.55,27 1,27 Z M1,39 C0.45,39 0,39.45 0,40 L0,44 C0,44.55 0.45,45 1,45 C1.55,45 2,44.55 2,44 L2,40 C2,39.45 1.55,39 1,39 Z M1,51 C0.45,51 0,51.45 0,52 L0,56 C0,56.55 0.45,57 1,57 C1.55,57 2,56.55 2,56 L2,52 C2,51.45 1.55,51 1,51 Z M1,63 C0.45,63 0,63.45 0,64 L0,68 C0,68.55 0.45,69 1,69 C1.55,69 2,68.55 2,68 L2,64 C2,63.45 1.55,63 1,63 Z M1,75 C0.45,75 0,75.45 0,76 L0,80 C0,80.55 0.45,81 1,81 C1.55,81 2,80.55 2,80 L2,76 C2,75.45 1.55,75 1,75 Z M1,87 C0.45,87 0,87.45 0,88 L0,92 C0,92.55 0.45,93 1,93 C1.55,93 2,92.55 2,92 L2,88 C2,87.45 1.55,87 1,87 Z M1,99 C0.45,99 0,99.45 0,100 L0,104 C0,104.55 0.45,105 1,105 C1.55,105 2,104.55 2,104 L2,100 C2,99.45 1.55,99 1,99 Z M1,111 C0.45,111 0,111.45 0,112 L0,116 C0,116.55 0.45,117 1,117 C1.55,117 2,116.55 2,116 L2,112 C2,111.45 1.55,111 1,111 Z M1,123 C0.45,123 0,123.45 0,124 L0,128 L2,128 L2,124 C2,123.45 1.55,123 1,123 Z M12,126 L8,126 C7.45,126 7,126.45 7,127 C7,127.55 7.45,128 8,128 L12,128 C12.55,128 13,127.55 13,127 C13,126.45 12.55,126 12,126 Z M24,126 L20,126 C19.45,126 19,126.45 19,127 C19,127.55 19.45,128 20,128 L24,128 C24.55,128 25,127.55 25,127 C25,126.45 24.55,126 24,126 Z M36,126 L32,126 C31.45,126 31,126.45 31,127 C31,127.55 31.45,128 32,128 L36,128 C36.55,128 37,127.55 37,127 C37,126.45 36.55,126 36,126 Z M48,126 L44,126 C43.45,126 43,126.45 43,127 C43,127.55 43.45,128 44,128 L48,128 C48.55,128 49,127.55 49,127 C49,126.45 48.55,126 48,126 Z M60,126 L56,126 C55.45,126 55,126.45 55,127 C55,127.55 55.45,128 56,128 L60,128 C60.55,128 61,127.55 61,127 C61,126.45 60.55,126 60,126 Z M72,126 L68,126 C67.45,126 67,126.45 67,127 C67,127.55 67.45,128 68,128 L72,128 C72.55,128 73,127.55 73,127 C73,126.45 72.55,126 72,126 Z M84,126 L80,126 C79.45,126 79,126.45 79,127 C79,127.55 79.45,128 80,128 L84,128 C84.55,128 85,127.55 85,127 C85,126.45 84.55,126 84,126 Z M96,126 L92,126 C91.45,126 91,126.45 91,127 C91,127.55 91.45,128 92,128 L96,128 C96.55,128 97,127.55 97,127 C97,126.45 96.55,126 96,126 Z M108,126 L104,126 C103.45,126 103,126.45 103,127 C103,127.55 103.45,128 104,128 L108,128 C108.55,128 109,127.55 109,127 C109,126.45 108.55,126 108,126 Z M120,126 L116,126 C115.45,126 115,126.45 115,127 C115,127.55 115.45,128 116,128 L120,128 C120.55,128 121,127.55 121,127 C121,126.45 120.55,126 120,126 Z M127,123 C126.45,123 126,123.45 126,124 L126,128 L128,128 L128,124 C128,123.45 127.55,123 127,123 Z M127,111 C126.45,111 126,111.45 126,112 L126,116 C126,116.55 126.45,117 127,117 C127.55,117 128,116.55 128,116 L128,112 C128,111.45 127.55,111 127,111 Z M127,99 C126.45,99 126,99.45 126,100 L126,104 C126,104.55 126.45,105 127,105 C127.55,105 128,104.55 128,104 L128,100 C128,99.45 127.55,99 127,99 Z M127,87 C126.45,87 126,87.45 126,88 L126,92 C126,92.55 126.45,93 127,93 C127.55,93 128,92.55 128,92 L128,88 C128,87.45 127.55,87 127,87 Z M127,75 C126.45,75 126,75.45 126,76 L126,80 C126,80.55 126.45,81 127,81 C127.55,81 128,80.55 128,80 L128,76 C128,75.45 127.55,75 127,75 Z M127,63 C126.45,63 126,63.45 126,64 L126,68 C126,68.55 126.45,69 127,69 C127.55,69 128,68.55 128,68 L128,64 C128,63.45 127.55,63 127,63 Z M127,51 C126.45,51 126,51.45 126,52 L126,56 C126,56.55 126.45,57 127,57 C127.55,57 128,56.55 128,56 L128,52 C128,51.45 127.55,51 127,51 Z M127,39 C126.45,39 126,39.45 126,40 L126,44 C126,44.55 126.45,45 127,45 C127.55,45 128,44.55 128,44 L128,40 C128,39.45 127.55,39 127,39 Z M127,27 C126.45,27 126,27.45 126,28 L126,32 C126,32.55 126.45,33 127,33 C127.55,33 128,32.55 128,32 L128,28 C128,27.45 127.55,27 127,27 Z M127,15 C126.45,15 126,15.45 126,16 L126,20 C126,20.55 126.45,21 127,21 C127.55,21 128,20.55 128,20 L128,16 C128,15.45 127.55,15 127,15 Z M127,3 C126.45,3 126,3.45 126,4 L126,8 C126,8.55 126.45,9 127,9 C127.55,9 128,8.55 128,8 L128,4 C128,3.45 127.55,3 127,3 Z"/>
</svg>
